X: 16
T: The Favorite
C: Scott Joplin
%%abc-version 2.0
%%abcx-abcm2ps-target-version 5.9.1 (29 Sep 2008)
%%abc-creator hum2abc beta
%%abcx-conversion-date 2021/07/20 09:00:56
%%abc-copyright 2021 Craig Stuart Sapp
%%abc-edited-by Craig Stuart Sapp
%%abc-edited-by Nate Sloan
%%abcx-initial-encoding-date 2012/05/07
%%humdrum-veritas 3231852816
%%humdrum-veritas-data 2130558510
%%removed 0's from note length
%%linebreak <none>
%%barnumbers 0
L: 1/8
M: 2/4
N: Derived from favorite.krn
Q: "Slow March Tempo." 1/4=100
%%staves {1 2}
V: 1 clef=treble
V: 2 clef=bass
K: Bb
[V:1] B/AB/ c/d/c | 
[V:2] B,/A,B,/ C/D/C | 
[V:1] F/G/E/D/- D/B/G/=E/ | 
[V:2] F,/G,/E,/D,/- D,/[G,/=E,/][B,^C,] | 
[V:1] F[c_G_E] [_dF_D][_gcB] | 
[V:2] [A,D,][A,A,,] [B,B,,][=E,=E,,] | 
[V:1] [fcA] z z [ec] ]|:  
[V:2] [F,F,,] !accent![F,F,,]!accent![G,G,,]!accent![A,A,,] ]|:  
[V:1] [dB]b/g/- g/f/d/B/ | 
[V:2] [B,B,,][DB,F,] F,,[DB,F,] | 
[V:1] A/fg/ ce & x2A2 | 
[V:2] C,[EA,F,] F,,[CA,F,] | 
[V:1] [dB]b/g/- g/f/d/B/ | 
[V:2] B,,[DB,F,] F,,[DB,F,] | 
[V:1] A/fg/ [cA]F | 
[V:2] C,[EA,F,] F,,F, | 
[V:1] (3=E/^c/B/G (3F/B/d/f | 
[V:2] G,^C,D,2 | 
[V:1] (3=E/^c/B/G (3F/B/d/!beambr1!f/_e/ | 
[V:2] G,^C,D,2 | 
[V:1] [g/A/]e/[g/A/]c/ e/f/e/c/ | 
[V:2] C,[EA,F,] F,,[EA,F,] | 
[V:1] d/^c/d/B/ =c/=B/c/F/ | 
[V:2] B,,[DB,F,] F,,[EA,F,] | 
[V:1] [dB]b/g/- g/f/d/B/ | 
[V:2] [B,B,,][DB,F,] F,,[DB,F,] | 
[V:1] A/fg/ ce & x2A2 | 
[V:2] C,[EA,F,] F,,[CA,F,] | 
[V:1] [dB]b/g/- g/f/d/B/ | 
[V:2] B,,[DB,F,] F,,[DB,F,] | 
[V:1] A/fg/ [cA]F | 
[V:2] C,[EA,F,] F,,F, | 
[V:1] (3=E/^c/B/G (3F/B/d/f | 
[V:2] G,^C,D,2 | 
[V:1] (3=E/^c/B/G (3F/B/d/!beambr1!f/_e/ | 
[V:2] G,^C,D,2 | 
[V:1] [g/A/]e/[g/A/]c/ e/f/e/c/ |[1 
[V:2] C,[EA,F,] F,,[EA,F,] | 
[V:1] B3[ec] :|][2 
[V:2] D3z & B,!accent![F,F,,] !accent![G,G,,]!accent![A,A,,] :|]  
[V:1] B2[bdB] z ]|: 
[V:2] D2x2 & B,[F,F,,][B,,B,,,] z ]|:  
[V:1] dg/d/- d/^c/d | 
[V:2] G,,[DB,G,] D,[DB,G,] | 
[V:1] ed/c/- c/g/e/c/ | 
[V:2] C,[ECG,] C,[ECG,] | 
[V:1] dg/d/- d/^c/d | 
[V:2] G,,[DB,G,] D,[DB,G,] | 
[V:1] ed/c/- cd | 
[V:2] C,[ECG,][ECG,]D & C,3D | 
[V:1] c/B/A/B/ GD | 
[V:2] E/D/C/D/ B,D, | 
[V:1] E/D/C/D/ B,[BGD] | 
[V:2] C/B,/A,/B,/ G,[G,G,,] | 
[V:1] [c2B2G2][e2B2G2] | 
[V:2] [E,2E,,2][^C,2^C,,2] | 
[V:1] !accent![dA^F] z!accent![d'2a2^f2d2] | 
[V:2] [D,D,,] z[D,2D,,2] | 
[V:1] dg/d/- d/^c/d | 
[V:2] G,,[DB,G,] D,[DB,G,] | 
[V:1] ed/c/- c/g/e/c/ | 
[V:2] C,[ECG,] C,[ECG,] | 
[V:1] dg/d/- d/^c/d | 
[V:2] G,,[DB,G,] D,[DB,G,] | 
[V:1] ed/c/- cE | 
[V:2] C,[ECG,][ECG,] z | 
[V:1] G/^F/G/A/ B/A/B/c/ | 
[V:2] [E,E,,][ECG,] [=E,=E,,][^CB,G,] | 
[V:1] d[f2d2B2F2][g^cBG] | 
[V:2] [F,F,,][DB,F,] [=E,=E,,][^CB,G,=E,] | 
[V:1] [d2B2F2][dB=E][cF_E] |[1 
[V:2] [F,F,,][^F,^F,,] [G,G,,][A,A,,] | 
[V:1] [B2D2][d2^F2D2] :|][2 
[V:2] [B,2B,,2][D,2D,,2] :|]  
[V:1] [B2D2]fe & x2A2 || 
[V:2] [B,2B,,2][D,2D,,2] ||  
[V:1] [dB]b/g/- g/f/d/B/ | 
[V:2] B,,[DB,F,] F,,[DB,F,] | 
[V:1] A/fg/ ce & x2A2 | 
[V:2] C,[EA,F,] F,,[CA,F,] | 
[V:1] [dB]b/g/- g/f/d/B/ | 
[V:2] B,,[DB,F,] F,,[DB,F,] | 
[V:1] A/fg/ [cA]F | 
[V:2] C,[EA,F,] F,,F, | 
[V:1] (3=E/^c/B/G (3F/B/d/f | 
[V:2] G,^C,D,2 | 
[V:1] (3=E/^c/B/G (3F/B/d/ f/_e/ | 
[V:2] G,^C,D,2 | 
[V:1] [g/A/]e/[g/A/]c/ e/f/e/c/ | 
[V:2] C,[EA,F,] F,,[EA,F,] | 
[V:1] d/^c/d/B/ =c/=B/c/F/ | 
[V:2] B,,[DB,F,] F,,[EA,F,] | 
[V:1] [dB]b/g/- g/f/d/B/ | 
[V:2] B,,[DB,F,] F,,[DB,F,] | 
[V:1] A/fg/ ce & x2A2 | 
[V:2] C,[EA,F,] F,,[CA,F,] | 
[V:1] [dB]b/g/- g/f/d/B/ | 
[V:2] B,,[DB,F,] F,,[DB,F,] | 
[V:1] A/fg/ [cA]F | 
[V:2] C,[EA,F,] F,,F, | 
[V:1] (3=E/^c/B/G (3F/B/d/f | 
[V:2] G,^C,D,2 | 
[V:1] (3=E/^c/B/G (3F/B/d/ f/_e/ | 
[V:2] G,^C,D,2 | 
[V:1] [g/A/]e/[g/A/]c/ e/f/e/c/ | 
[V:2] C,[EA,F,] F,,[EA,F,] | 
[V:1] B2[bdB] z ]|:  
[V:2] [B,D][F,F,,][B,,B,,,] z ]|:  
[V:1]  [K:Eb] [g2e2G2][^f2e2^F2] | 
[V:2]  [K:Eb] E,[EB,G,] E,[EC=A,] | 
[V:1] [g2e2G2][b2g2B2] | 
[V:2] E,[EB,G,] [EE,][_D_D,] | 
[V:1] z/ e/[a/A/]e/ f/[aA]e/ | 
[V:2] [CC,][ECA,] [CC,][_C_C,] | 
[V:1] [g2e2G2][b2d2B2] | 
[V:2] [B,B,,][EB,G,] [F,F,,][B,,B,,,] | 
[V:1] [g2e2G2][^fe^F][geG] | 
[V:2] [E,E,,][EB,G,] E,[EB,G,] | 
[V:1] [b2g2d2B2][d'2b2g2d2] | 
[V:2] D,[DB,G,] D,[DB,G,] | 
[V:1] z/ ^f/[d'/d/]f/ =a/c'/b/a/ | 
[V:2] D,[DC^F,] D,[DCF,] | 
[V:1] g2[b2d2B2] | 
[V:2] [D2B,2G,2][F,F,,][B,,B,,,] | 
[V:1] [g2e2G2][^f2e2^F2] | 
[V:2] [E,E,,][EB,G,] E,[EC=A,] | 
[V:1] [g2e2G2][b2g2B2] | 
[V:2] E,[EB,G,] [EE,][_D_D,] | 
[V:1] z/ e/[a/A/]e/ f/[aA]e/ | 
[V:2] [CC,][ECA,] [CC,][_C_C,] | 
[V:1] [g2e2G2][b2g2B2] | 
[V:2] [B,B,,][EB,G,] [EE,][_D_D,] | 
[V:1] z/ e/[a/A/]e/ f/[aA]e/ | 
[V:2] [CC,][ECA,] [CC,][_C_C,] | 
[V:1] [g2e2G2][c'2e2c2] | 
[V:2] [B,B,,][EB,G,] [=A,=A,,][EC^F,] | 
[V:1] [b/B/]e/[gB] [ge=A][fd_A] |[1 
[V:2] [B,B,,][EB,G,] [F,F,,][B,,B,,,] | 
[V:1] [eG]B/c/ d/e/f/^f/ :|][2 
[V:2] [E,E,,] zz2 :|]  
[V:1] [eG] [b/B/][b/B/] [bB][bB] ]|: 
[V:2] [E,E,,] zz2 ]|:  
[V:1] [d'2a2d2][f'2a2f2] | 
[V:2] F,[DB,A,] B,,[DB,A,] | 
[V:1] [g'2b2g2][f'2a2f2] | 
[V:2] D,[DB,A,] B,,[DB,A,] | 
[V:1] [e'ge][c'gc][b2g2B2]- | 
[V:2] E,[EB,G,] B,,[EB,G,] | 
[V:1] [bgB]e/f/ g/a/b/c'/ | 
[V:2] E,[EB,G,] B,,[EB,G,] | 
[V:1] [d'ad][c'ac][b2a2B2]- | 
[V:2] F,[DB,A,] B,,[DB,A,] | 
[V:1] [baB]f/g/ a/b/c'/d'/ | 
[V:2] D,[DB,A,] B,,[DB,A,] | 
[V:1] [e'ge][c'gc][b2g2B2]- | 
[V:2] E,[EB,G,] B,,[EB,G,] | 
[V:1] [bgB][b/B/][b/B/] [bB][bB] | 
[V:2] [EB,G,E,] zz2 | 
[V:1] [d'2a2d2][f'2a2f2] | 
[V:2] F,[DB,A,] B,,[DB,A,] | 
[V:1] [g'2b2g2][f'2a2f2] | 
[V:2] D,[DB,A,] B,,[DB,A,] | 
[V:1] [e'ge][c'gc][b2g2B2] | 
[V:2] E,[EB,G,] B,,[EB,G,] | 
[V:1] [g2e2G2][b2g2B2] | 
[V:2] E,[EB,G,] [EE,][_D_D,] | 
[V:1] z/ e/[a/A/]e/ f/[aA]e/ | 
[V:2] [CC,][ECA,] [CC,][_C_C,] | 
[V:1] [g2e2G2][c'2e2c2] | 
[V:2] [B,B,,][EB,G,] [=A,=A,,][EC^F,] | 
[V:1] [b/B/]e/[gB] [ge=A][fd_A] |[1 
[V:2] [B,B,,][EB,G,] [F,F,,][B,,B,,,] | 
[V:1] [eG][b/B/][b/B/] [bB][bB] :|][2 
[V:2] [E,E,,] zz2 :|]  
[V:1] [e2G2]!accent![e'ge] z |]  
[V:2] [E,E,,]B,,!accent!E,, z |]  


